src/features/landing/assets/vrf-logo.svg

<svg width="48" height="48" viewBox="0 0 48 48" fill="none" xmlns="http://www.w3.org/2000/svg">
<g clip-path="url(#clip0_3965_20463)">
<path d="M24.0003 0L3.21582 12.0009V35.9991L24.0003 48L44.7848 35.9991V12.0009L24.0003 0ZM37.0529 27.4977C37.0529 27.4977 36.943 27.8714 36.6975 28.1206L28.1154 36.7026C27.7673 37.0508 27.258 37.19 26.7779 37.0618L15.0555 33.9214C14.5791 33.7931 14.2054 33.4193 14.0771 32.943L10.9367 21.2206C10.8085 20.7442 10.944 20.2348 11.2958 19.883L19.8779 11.301C20.0501 11.1288 20.2663 11.0079 20.4935 10.9456C20.7243 10.8833 20.9735 10.8796 21.2154 10.9456L32.9378 14.086C33.3812 14.2069 33.7366 14.5367 33.8832 14.9654L37.0786 26.9004C37.1189 27.1019 37.1079 27.3071 37.0566 27.5013L37.0529 27.4977Z" fill="url(#paint0_linear_3965_20463)"/>
<path d="M37.0526 27.4977L24.7548 24.1997C24.2785 24.0714 23.9047 23.6977 23.7764 23.2213L20.4895 10.9419C20.2586 11.0042 20.0461 11.1251 19.8738 11.2973L11.2918 19.8794C10.9437 20.2275 10.8044 20.7368 10.9327 21.2169L14.0731 32.9393C14.2013 33.4157 14.5751 33.7894 15.0515 33.9177L26.7739 37.0581C27.2503 37.1863 27.7596 37.0508 28.1114 36.699L36.6934 28.1169C36.9426 27.8678 37.0489 27.494 37.0489 27.494L37.0526 27.4977Z" fill="#1A2B6B"/>
<path d="M27.0347 19.6119C26.4447 19.4543 26.093 19.8024 26.2505 20.3887C26.4044 20.975 27.0091 21.5797 27.599 21.7372C28.189 21.8948 28.5408 21.5467 28.3869 20.9604C28.233 20.3741 27.6283 19.7694 27.0384 19.6119H27.0347Z" fill="#1A2B6B"/>
<path d="M30.1968 16.4861C29.6068 16.3286 29.2551 16.6767 29.4126 17.263C29.5665 17.8493 30.1712 18.4539 30.7611 18.6115C31.3511 18.7691 31.7029 18.4209 31.549 17.8346C31.3951 17.2483 30.7904 16.6437 30.2005 16.4861H30.1968Z" fill="#0C162C"/>
<path d="M31.1792 20.6049C30.5893 20.4474 30.2375 20.7955 30.3951 21.3818C30.549 21.9681 31.1536 22.5727 31.7436 22.7303C32.3335 22.8878 32.6853 22.5397 32.5314 21.9534C32.3775 21.3671 31.7729 20.7625 31.1829 20.6049H31.1792Z" fill="#0C162C"/>
<path d="M25.9429 15.537C25.3529 15.3795 25.0012 15.7276 25.1587 16.3139C25.3126 16.9002 25.9173 17.5048 26.5072 17.6624C27.0972 17.82 27.449 17.4719 27.2951 16.8855C27.1412 16.2992 26.5365 15.6946 25.9466 15.537H25.9429Z" fill="#0C162C"/>
</g>
<defs>
<linearGradient id="paint0_linear_3965_20463" x1="34.3926" y1="5.99863" x2="13.6081" y2="42.0014" gradientUnits="userSpaceOnUse">
<stop stop-color="#7790E2"/>
<stop offset="1" stop-color="#486DDC"/>
</linearGradient>
<clipPath id="clip0_3965_20463">
<rect width="41.569" height="48" fill="white" transform="translate(3.21582)"/>
</clipPath>
</defs>
</svg>

<svg xmlns="http://www.w3.org/2000/svg" xmlns:xlink="http://www.w3.org/1999/xlink" width="48" height="48" fill="none" xmlns:v="https://vecta.io/nano"><g clip-path="url(#B)"><path d="M24 0L3.216 12.001v23.998L24 48l20.784-12.001V12.001L24 0zm13.053 27.498s-.11.374-.355.623l-8.582 8.582c-.348.348-.858.487-1.338.359l-11.722-3.14a1.39 1.39 0 0 1-.978-.978l-3.14-11.722a1.38 1.38 0 0 1 .359-1.338l8.582-8.582c.172-.172.388-.293.616-.355a1.38 1.38 0 0 1 .722 0l11.722 3.14a1.38 1.38 0 0 1 .946.879L37.078 26.9a1.33 1.33 0 0 1-.022.601l-.004-.004z" fill="url(#A)"/><g fill="#1a2b6b"><path d="M37.053 27.498L24.755 24.2a1.39 1.39 0 0 1-.978-.978l-3.287-12.28a1.38 1.38 0 0 0-.616.355l-8.582 8.582c-.348.348-.487.857-.359 1.337l3.14 11.722a1.39 1.39 0 0 0 .978.978l11.722 3.14a1.38 1.38 0 0 0 1.337-.359l8.582-8.582c.249-.249.356-.623.356-.623l.004.004zm-10.019-7.886c-.59-.158-.942.191-.784.777a2.1 2.1 0 0 0 1.349 1.349c.59.158.942-.191.788-.777a2.1 2.1 0 0 0-1.348-1.349h-.004z"/></g><g fill="#0c162c"><use xlink:href="#C"/><path d="M31.179 20.605c-.59-.157-.942.191-.784.777a2.1 2.1 0 0 0 1.348 1.348c.59.158.942-.191.788-.777a2.1 2.1 0 0 0-1.349-1.348h-.004zm-5.237-5.068c-.59-.158-.942.191-.784.777a2.1 2.1 0 0 0 1.348 1.349c.59.158.942-.191.788-.777a2.1 2.1 0 0 0-1.349-1.348h-.004z"/></g></g><defs><linearGradient id="A" x1="34.392" y1="5.999" x2="13.608" y2="42.001" gradientUnits="userSpaceOnUse"><stop stop-color="#7790e2"/><stop offset="1" stop-color="#486ddc"/></linearGradient><clipPath id="B"><path fill="#fff" transform="translate(3.216)" d="M0 0h41.569v48H0z"/></clipPath><path id="C" d="M30.197 16.486c-.59-.157-.942.191-.784.777a2.1 2.1 0 0 0 1.348 1.348c.59.158.942-.191.788-.777a2.1 2.1 0 0 0-1.349-1.348h-.004z"/></defs></svg>
